images/icons/svg/cancel.svg

<?xml version="1.0" encoding="iso-8859-1"?>
<!-- Generator: Adobe Illustrator 19.0.0, SVG Export Plug-In . SVG Version: 6.00 Build 0)  -->
<svg version="1.1" id="Layer_1" xmlns="http://www.w3.org/2000/svg" xmlns:xlink="http://www.w3.org/1999/xlink" x="0px" y="0px"
	 viewBox="0 0 507.2 507.2" style="enable-background:new 0 0 507.2 507.2;" xml:space="preserve">
<circle style="fill:#F15249;" cx="253.6" cy="253.6" r="253.6"/>
<path style="fill:#AD0E0E;" d="M147.2,368L284,504.8c115.2-13.6,206.4-104,220.8-219.2L367.2,148L147.2,368z"/>
<path style="fill:#FFFFFF;" d="M373.6,309.6c11.2,11.2,11.2,30.4,0,41.6l-22.4,22.4c-11.2,11.2-30.4,11.2-41.6,0l-176-176
	c-11.2-11.2-11.2-30.4,0-41.6l23.2-23.2c11.2-11.2,30.4-11.2,41.6,0L373.6,309.6z"/>
<path style="fill:#D6D6D6;" d="M280.8,216L216,280.8l93.6,92.8c11.2,11.2,30.4,11.2,41.6,0l23.2-23.2c11.2-11.2,11.2-30.4,0-41.6
	L280.8,216z"/>
<path style="fill:#FFFFFF;" d="M309.6,133.6c11.2-11.2,30.4-11.2,41.6,0l23.2,23.2c11.2,11.2,11.2,30.4,0,41.6L197.6,373.6
	c-11.2,11.2-30.4,11.2-41.6,0l-22.4-22.4c-11.2-11.2-11.2-30.4,0-41.6L309.6,133.6z"/>
<g>
</g>
<g>
</g>
<g>
</g>
<g>
</g>
<g>
</g>
<g>
</g>
<g>
</g>
<g>
</g>
<g>
</g>
<g>
</g>
<g>
</g>
<g>
</g>
<g>
</g>
<g>
</g>
<g>
</g>
</svg>

<svg width="508" height="508" viewBox="0 0 508 508" fill="none" xmlns="http://www.w3.org/2000/svg">
<g clip-path="url(#clip0)">
<path d="M253.6 507.2C393.659 507.2 507.2 393.659 507.2 253.6C507.2 113.541 393.659 0 253.6 0C113.541 0 0 113.541 0 253.6C0 393.659 113.541 507.2 253.6 507.2Z" fill="#F15249"/>
<path d="M147.2 368L284 504.8C399.2 491.2 490.4 400.8 504.8 285.6L367.2 148L147.2 368Z" fill="#AD0E0E"/>
<path d="M373.6 309.6C384.8 320.8 384.8 340 373.6 351.2L351.2 373.6C340 384.8 320.8 384.8 309.6 373.6L133.6 197.6C122.4 186.4 122.4 167.2 133.6 156L156.8 132.8C168 121.6 187.2 121.6 198.4 132.8L373.6 309.6Z" fill="white"/>
<path d="M280.8 216L216 280.8L309.6 373.6C320.8 384.8 340 384.8 351.2 373.6L374.4 350.4C385.6 339.2 385.6 320 374.4 308.8L280.8 216Z" fill="#D6D6D6"/>
<path d="M309.6 133.6C320.8 122.4 340 122.4 351.2 133.6L374.4 156.8C385.6 168 385.6 187.2 374.4 198.4L197.6 373.6C186.4 384.8 167.2 384.8 156 373.6L133.6 351.2C122.4 340 122.4 320.8 133.6 309.6L309.6 133.6Z" fill="white"/>
</g>
<defs>
<clipPath id="clip0">
<rect width="507.2" height="507.2" fill="white"/>
</clipPath>
</defs>
</svg>
